incomeartour/img/icons/diamond.svg

<svg width="38" height="47" viewBox="0 0 38 47" fill="none" xmlns="http://www.w3.org/2000/svg">
<path d="M18.4157 46.3487C18.4538 46.3977 18.4988 46.4397 18.5468 46.4773C18.5576 46.4857 18.57 46.4916 18.5814 46.4991C18.6288 46.5317 18.6793 46.5584 18.7332 46.5792C18.7515 46.5861 18.7693 46.593 18.7881 46.599C18.8563 46.6193 18.9266 46.6336 18.9998 46.6336C19.073 46.6336 19.1432 46.6193 19.2114 46.599C19.2302 46.5935 19.248 46.5866 19.2663 46.5792C19.3202 46.5584 19.3707 46.5317 19.4182 46.4991C19.4295 46.4912 19.4419 46.4857 19.4528 46.4773C19.5008 46.4402 19.5458 46.3977 19.5838 46.3487L37.1066 23.9378C37.3054 23.6836 37.3168 23.3305 37.1357 23.0634L30.612 13.4699C30.474 13.2667 30.2441 13.1455 29.9988 13.1455H8.00176C7.75597 13.1455 7.52649 13.2672 7.38851 13.4699L0.864284 23.0634C0.682781 23.3305 0.69465 23.6836 0.893463 23.9378L18.4157 46.3487ZM24.5017 24.2226L19.0003 43.2241L13.4988 24.2226H24.5017ZM13.9093 22.739L19.0003 15.2113L24.0913 22.7385H13.9093V22.739ZM26.0462 24.2226H35.0012L20.7802 42.4105L26.0462 24.2226ZM26.657 22.739L30.1165 15.3804L35.1209 22.739H26.657ZM25.3727 21.9843L20.3979 14.6292H28.8306L25.3727 21.9843ZM12.6279 21.9843L9.16991 14.6292H17.6026L12.6279 21.9843ZM11.3435 22.739H2.87961L7.88406 15.3804L11.3435 22.739ZM11.9543 24.2226L17.2203 42.411L2.9993 24.2226H11.9543Z" fill="#272727"/>
<path d="M19.0003 6.64112C19.4103 6.64112 19.7421 6.30928 19.7421 5.89929V1.38149C19.7421 0.971498 19.4103 0.639648 19.0003 0.639648C18.5903 0.639648 18.2584 0.971498 18.2584 1.38149V5.89929C18.2584 6.30878 18.5903 6.64112 19.0003 6.64112Z" fill="#272727"/>
<path d="M12.7382 7.13416C12.8479 7.43534 13.1323 7.62229 13.4355 7.62229C13.5196 7.62229 13.6056 7.60794 13.6892 7.57728C14.074 7.43732 14.2728 7.01151 14.1323 6.62624L12.5873 2.38095C12.4469 1.99618 12.021 1.79786 11.6363 1.93782C11.2515 2.07778 11.0527 2.5036 11.1931 2.88886L12.7382 7.13416Z" fill="#272727"/>
<path d="M7.97352 10.1828C8.11991 10.3578 8.33059 10.4478 8.54226 10.4478C8.71041 10.4478 8.87955 10.391 9.01852 10.2743C9.33207 10.0111 9.37312 9.5428 9.11002 9.22925L6.20596 5.76832C5.94286 5.45477 5.47501 5.41372 5.16096 5.67683C4.84741 5.93993 4.80636 6.40828 5.06947 6.72183L7.97352 10.1828Z" fill="#272727"/>
<path d="M29.4581 10.4478C29.6698 10.4478 29.8805 10.3578 30.0269 10.1827L32.9309 6.72177C33.1945 6.40773 33.1535 5.93987 32.8394 5.67677C32.5254 5.41317 32.0575 5.45422 31.7944 5.76826L28.8904 9.22919C28.6268 9.54323 28.6678 10.0111 28.9819 10.2742C29.1209 10.3904 29.29 10.4478 29.4581 10.4478Z" fill="#272727"/>
<path d="M24.3114 7.57728C24.395 7.60794 24.481 7.62229 24.5651 7.62229C24.8682 7.62229 25.1526 7.43534 25.2624 7.13416L26.8074 2.88886C26.9474 2.5036 26.7491 2.07778 26.3643 1.93782C25.9785 1.79786 25.5532 1.99618 25.4133 2.38095L23.8683 6.62624C23.7278 7.01151 23.9261 7.43732 24.3114 7.57728Z" fill="#272727"/>
</svg>

<svg width="38" height="47" fill="none" xmlns="http://www.w3.org/2000/svg"><path d="M18.416 46.349a.749.749 0 00.13.128c.012.009.024.015.035.022a.69.69 0 00.152.08l.055.02a.74.74 0 00.212.035.74.74 0 00.266-.055.735.735 0 00.152-.08c.012-.008.024-.013.035-.022a.728.728 0 00.13-.128l17.524-22.411a.742.742 0 00.029-.875l-6.524-9.593a.741.741 0 00-.613-.325H8.002a.742.742 0 00-.613.325L.864 23.063a.742.742 0 00.03.875l17.522 22.41zm6.086-22.126L19 43.224l-5.5-19.001h11.003zm-10.593-1.484L19 15.211l5.091 7.527H13.91v.001zm12.137 1.484h8.955L20.781 42.41l5.265-18.188zm.611-1.484l3.46-7.359 5.004 7.359h-8.464zm-1.284-.755l-4.975-7.355h8.433l-3.458 7.355zm-12.745 0L9.17 14.63h8.433l-4.975 7.355zm-1.284.755H2.88l5.004-7.359 3.46 7.359zm.61 1.484L17.22 42.41 3 24.223h8.954zM19 6.641c.41 0 .742-.332.742-.742V1.381a.741.741 0 10-1.484 0V5.9c0 .41.332.742.742.742zm-6.262.493a.742.742 0 101.394-.508l-1.545-4.245a.742.742 0 00-1.394.508l1.545 4.245zm-4.764 3.049a.74.74 0 001.045.091.742.742 0 00.091-1.045L6.206 5.77a.742.742 0 00-1.137.953l2.905 3.46zm21.484.265a.74.74 0 00.569-.265l2.904-3.461a.741.741 0 10-1.137-.954L28.89 9.23a.741.741 0 00.568 1.219zm-5.147-2.871a.742.742 0 00.951-.443l1.545-4.245a.742.742 0 00-1.394-.508l-1.545 4.245a.741.741 0 00.443.951z" fill="#272727"/></svg>
